Simply-Orange-Circles/scalable/apps/media-player-banshee.svg

<?xml version="1.0" encoding="UTF-8" standalone="no"?>
<svg
   xmlns:dc="http://purl.org/dc/elements/1.1/"
   xmlns:cc="http://creativecommons.org/ns#"
   xmlns:rdf="http://www.w3.org/1999/02/22-rdf-syntax-ns#"
   xmlns:svg="http://www.w3.org/2000/svg"
   xmlns="http://www.w3.org/2000/svg"
   xmlns:sodipodi="http://sodipodi.sourceforge.net/DTD/sodipodi-0.dtd"
   xmlns:inkscape="http://www.inkscape.org/namespaces/inkscape"
   width="48"
   height="48"
   viewBox="0 0 12.7 12.7"
   version="1.1"
   id="svg4"
   sodipodi:docname="media-player-banshee.svg"
   inkscape:version="0.92.4 (5da689c313, 2019-01-14)">
  <metadata
     id="metadata10">
    <rdf:RDF>
      <cc:Work
         rdf:about="">
        <dc:format>image/svg+xml</dc:format>
        <dc:type
           rdf:resource="http://purl.org/dc/dcmitype/StillImage" />
        <dc:title></dc:title>
      </cc:Work>
    </rdf:RDF>
  </metadata>
  <defs
     id="defs8" />
  <sodipodi:namedview
     pagecolor="#ffffff"
     bordercolor="#666666"
     borderopacity="1"
     objecttolerance="10"
     gridtolerance="10"
     guidetolerance="10"
     inkscape:pageopacity="0"
     inkscape:pageshadow="2"
     inkscape:window-width="1087"
     inkscape:window-height="480"
     id="namedview6"
     showgrid="false"
     inkscape:zoom="4.9166667"
     inkscape:cx="2.1355932"
     inkscape:cy="24"
     inkscape:window-x="0"
     inkscape:window-y="25"
     inkscape:window-maximized="0"
     inkscape:current-layer="svg4" />
  <path
     d="m 6.344,0.073 a 6.29,6.29 0 0 0 -6.29,6.29 6.29,6.29 0 0 0 6.29,6.288 6.29,6.29 0 0 0 6.29,-6.289 6.29,6.29 0 0 0 -6.29,-6.29 z M 6.326,1.009 A 5.407,5.407 0 0 1 11.733,6.416 5.407,5.407 0 0 1 6.326,11.823 5.407,5.407 0 0 1 0.92,6.416 5.407,5.407 0 0 1 6.326,1.01 Z M 5.874,1.766 C 3.408,1.819 3.604,2.94 2.324,3.724 3.94,3.66 3.804,2.879 4.866,2.906 L 4.869,5.142 A 3.537,3.304 0 0 0 3.364,7.844 3.537,3.304 0 0 0 6.901,11.149 3.537,3.304 0 0 0 10.438,7.844 3.537,3.304 0 0 0 6.9,4.54 3.537,3.304 0 0 0 5.874,4.683 Z M 6.905,4.8 A 3.239,3.026 0 0 1 10.144,7.826 3.239,3.026 0 0 1 6.905,10.852 3.239,3.026 0 0 1 3.666,7.826 3.239,3.026 0 0 1 4.87,5.475 L 4.874,9.348 C 8.186,9.706 9.288,8.524 9.288,7.653 9.288,6.799 8.736,5.867 5.876,6.773 V 4.962 a 3.239,3.026 0 0 1 1.03,-0.16 z m 0.414,2.3 c 0.432,0.014 0.787,0.157 0.787,0.57 0,0.845 -1.673,1.082 -2.23,1.045 V 7.39 C 6.086,7.28 6.765,7.084 7.319,7.101 Z"
     id="path2"
     inkscape:connector-curvature="0"
     style="fill:#ff7f2a" />
</svg>

<svg xmlns="http://www.w3.org/2000/svg" width="48" height="48" viewBox="0 0 12.7 12.7"><path fill="#ff7f2a" d="M6.34.07a6.29 6.29 0 0 0-6.29 6.3 6.29 6.29 0 0 0 6.3 6.28 6.29 6.29 0 0 0 6.28-6.29A6.29 6.29 0 0 0 6.34.07zm-.01.94a5.4 5.4 0 0 1 5.4 5.4 5.4 5.4 0 0 1-5.4 5.41 5.4 5.4 0 0 1-5.41-5.4A5.4 5.4 0 0 1 6.32 1zm-.46.76c-2.46.05-2.27 1.17-3.55 1.95 1.62-.06 1.48-.84 2.55-.81v2.23a3.54 3.3 0 0 0-1.5 2.7 3.54 3.3 0 0 0 3.53 3.3 3.54 3.3 0 0 0 3.54-3.3 3.54 3.3 0 0 0-3.54-3.3 3.54 3.3 0 0 0-1.03.14V1.77zM6.91 4.8a3.24 3.03 0 0 1 3.23 3.03 3.24 3.03 0 0 1-3.24 3.02 3.24 3.03 0 0 1-3.23-3.02 3.24 3.03 0 0 1 1.2-2.36v3.88c3.32.36 4.42-.83 4.42-1.7 0-.85-.55-1.78-3.41-.88v-1.8A3.24 3.03 0 0 1 6.9 4.8zm.4 2.3c.44.01.8.16.8.57 0 .84-1.68 1.08-2.23 1.04V7.4c.2-.11.88-.3 1.44-.29z"/></svg>
